X:1
T:Muiñeira do Areal
S:E.P.Band
R:muiñeira
O:Galicia
M:6/8
A:Galicia
K:G
GBd|cAF FAe|dBG GBg|fdf ece|dBG GBd|cAF FAe|dBG GBg|fed cBA|1 G3:|2g6|z6|z3|:GBd|g2ge fgf|
e2e cde|f2f efe|e2 d4|d6|z3:|Bcd|e2e ded|c2A f2e|ded cBc|e2 d4|d6|z3Bcd|e2e ded|c2A f2e|ded cBA|G3|]

